X:57
T:Smålandspolska ur Nils Månsson Mandelgrens samlingar
R:Polska
O:Småland
S:Nils Månsson Mandelgren
N:Småländsk Musiktradition I:57
N:1840
B:Småländsk Musiktradition
M:3/4
L:1/16
K:Am
e3c A2(Ac) (c2B2)|(A^G)AB (cd)ef (gf)ef|e3c A2(Ac) c2(B^G)|(E^G)BB B4 A4:|
|:e2(eB) c2(cd) e2e2|g2(ge) c2(cB) d4|dedc BcBA ^G^FGB|(de)fd d2e2 !fermata!e4|
e3c A2(Ac) (c2B2)|(A^G)AB (cd)ef (gf)ef|e3c A2(Ac) c2(B^G)|(E^G)BB B4 !fermata!A4:|

